svgs/vr_securego_plus.svg

<svg width="192" height="192" viewBox="0 0 192 192" fill="none" xmlns="http://www.w3.org/2000/svg">
<path d="M171.559 85.1725L171.826 20.2649L20.1072 20L20.4274 84.7486L68.0295 84.9605L61.8391 56.5602H43.6948L36.6505 28.7956L85.5335 29.2195L95.3527 70.9723L102.61 41.9361C106.294 35.4197 111.412 30.3285 120.755 29.4315H154.482L145.516 66.7334L124.811 65.8857L126.305 55.7124L121.182 84.9605L171.559 85.1725Z" stroke="black" stroke-width="8" stroke-linecap="round" stroke-linejoin="round"/>
<path d="M20.1072 99.8452L72.3103 99.9517L74.883 111.875L20 111.769L20.1072 99.8452Z" stroke="black" stroke-width="8" stroke-linecap="round" stroke-linejoin="round"/>
<path d="M171.893 99.8984L118.832 100.005L116.26 111.928L172 111.822L171.893 99.8984Z" stroke="black" stroke-width="8" stroke-linecap="round" stroke-linejoin="round"/>
<path d="M36.2447 148.437C34.4591 160.439 38.7688 168.512 49.5323 172.426C59.8932 168.508 65.0008 160.897 62.8199 148.162C53.9615 145.093 45.1031 144.182 36.2447 148.437Z" stroke="black" stroke-width="8" stroke-linecap="round" stroke-linejoin="round"/>
<path d="M40.0342 137.869C38.6777 131.259 43.93 126.916 49.209 126.762C54.6505 126.603 59.7981 132.198 58.5572 137.869" stroke="black" stroke-width="7.99999" stroke-linecap="round" stroke-linejoin="round"/>
<path d="M101.9 139.653C100.097 139.712 98.3893 140.437 96.9181 141.444C96.3657 140.421 95.1933 140.025 94.0912 140.021C92.7542 140.002 91.0959 139.868 90.1664 141.029C89.5173 142.168 89.9481 143.533 89.8223 144.773C89.8341 152.743 89.7896 160.716 89.8546 168.683C90.1034 170.082 91.7526 170.538 92.9544 170.511C94.414 170.583 96.1179 170.664 97.285 169.633C98.0914 168.646 97.6847 167.298 97.7798 166.137C97.7582 164.885 97.7821 163.633 97.838 162.382C100.492 163.791 103.842 163.754 106.449 162.254C109.376 160.617 110.795 157.251 111.2 154.066C111.606 150.547 111.429 146.754 109.619 143.617C108.359 141.384 105.97 139.873 103.408 139.684C102.908 139.632 102.403 139.626 101.9 139.653V139.653ZM101.052 146.801C102.335 146.943 102.839 148.328 103.024 149.424C103.363 151.547 103.385 153.989 101.983 155.759C101.119 156.621 99.6553 156.286 98.9401 155.402C98.3664 154.868 97.5885 154.264 97.7783 153.382C97.7783 151.894 97.7783 150.405 97.7783 148.917C98.6329 147.941 99.6041 146.714 101.052 146.801Z" fill="black"/>
<path d="M117.751 129.892C116.602 129.938 114.968 130.13 114.649 131.461C114.442 133.565 114.653 135.683 114.568 137.793C114.585 146.412 114.516 155.039 114.628 163.654C115.042 164.961 116.632 165.095 117.794 165.084C119.239 165.144 120.895 165.254 122.103 164.323C122.875 163.26 122.393 161.873 122.524 160.66C122.524 150.933 122.553 141.206 122.482 131.479C122.075 130.085 120.375 129.902 119.144 129.888C118.68 129.868 118.215 129.887 117.751 129.892L117.751 129.892Z" fill="black"/>
<path d="M141.861 141.031C140.718 141.114 139.186 141.303 138.793 142.583C138.519 143.637 138.749 144.748 138.673 145.827C138.673 149.079 138.673 152.33 138.673 155.582C137.765 156.507 136.776 157.808 135.317 157.65C134.092 157.441 133.832 155.998 133.833 154.961C133.743 150.909 133.882 146.852 133.758 142.803C133.459 141.497 131.963 141.052 130.775 141.056C129.28 141.035 127.58 140.832 126.296 141.754C125.25 142.714 125.736 144.255 125.642 145.499C125.664 149.459 125.536 153.426 125.737 157.383C125.955 160.153 127.354 163.017 129.967 164.254C132.854 165.668 136.461 165.345 139.117 163.558C139.62 163.037 139.815 164.005 140.265 164.167C141.541 164.957 143.138 164.769 144.567 164.677C145.673 164.581 146.889 163.805 146.806 162.566C146.864 160.555 146.796 158.54 146.827 156.527C146.805 151.933 146.885 147.332 146.767 142.744C146.404 141.421 144.861 141.014 143.643 141.059C143.05 141.023 142.456 141.004 141.862 141.031H141.861Z" fill="black"/>
<path d="M158.687 140.852C155.676 140.885 152.356 142.137 150.928 144.95C149.378 147.928 150.199 152.094 153.153 153.898C154.932 155.143 157.05 155.562 158.938 156.598C159.449 156.931 160.26 157.569 159.701 158.215C158.603 159.422 156.777 159.16 155.358 158.808C154.05 158.446 152.942 157.531 151.604 157.286C150.6 157.335 150.05 158.388 150.115 159.294C149.959 160.754 149.958 162.651 151.395 163.498C154.822 165.246 159.048 165.419 162.607 163.955C164.622 163.109 166.241 161.356 166.746 159.213C167.481 156.608 166.696 153.553 164.488 151.882C162.466 150.279 159.851 149.928 157.677 148.589C156.853 147.895 157.616 146.509 158.617 146.613C160.567 146.34 162.368 147.32 164.108 148.033C165.118 148.225 165.904 147.219 165.814 146.276C165.909 145.058 166.078 143.417 165.082 142.44C163.779 141.391 162.025 141.147 160.418 140.91C159.842 140.865 159.265 140.828 158.687 140.852V140.852Z" fill="black"/>
</svg>

<svg width="192" height="192" viewBox="0 0 192 192" fill="none" xmlns="http://www.w3.org/2000/svg"><path d="m171.559 85.172.267-64.907L20.107 20l.32 64.749 47.602.212-6.19-28.4H43.695L36.65 28.795l48.883.424 9.819 41.752 7.257-29.036c3.684-6.516 8.802-11.608 18.145-12.505h33.727l-8.966 37.302-20.705-.847 1.494-10.174-5.123 29.248 50.377.213ZM20.107 99.845l52.203.107 2.573 11.923L20 111.769l.107-11.924ZM171.893 99.898l-53.061.107-2.572 11.923 55.74-.106-.107-11.924ZM36.245 148.437c-1.786 12.002 2.524 20.075 13.287 23.989 10.361-3.918 15.469-11.529 13.288-24.264-8.858-3.069-17.717-3.98-26.575.275ZM40.034 137.869c-1.356-6.61 3.896-10.953 9.175-11.107 5.441-.159 10.59 5.436 9.348 11.107" stroke="#000" stroke-width="8" stroke-linecap="round" stroke-linejoin="round"/><path d="M101.9 139.653c-1.803.059-3.51.784-4.982 1.791-.552-1.023-1.725-1.419-2.827-1.423-1.337-.019-2.995-.153-3.925 1.008-.649 1.139-.218 2.504-.344 3.744.012 7.97-.032 15.943.033 23.91.248 1.399 1.898 1.855 3.1 1.828 1.459.072 3.163.153 4.33-.878.806-.987.4-2.335.495-3.496a60.67 60.67 0 0 1 .058-3.755c2.654 1.409 6.004 1.372 8.611-.128 2.927-1.637 4.346-5.003 4.751-8.188.406-3.519.229-7.312-1.581-10.449-1.26-2.233-3.649-3.744-6.211-3.933a9.609 9.609 0 0 0-1.508-.031Zm-.848 7.148c1.283.142 1.787 1.527 1.972 2.623.339 2.123.361 4.565-1.041 6.335-.864.862-2.328.527-3.043-.357-.574-.534-1.352-1.138-1.162-2.02v-4.465c.855-.976 1.826-2.203 3.274-2.116ZM117.751 129.892c-1.149.046-2.783.238-3.102 1.569-.207 2.104.004 4.222-.081 6.332.017 8.619-.052 17.246.06 25.861.414 1.307 2.004 1.441 3.166 1.43 1.445.06 3.101.17 4.309-.761.772-1.063.29-2.45.421-3.663 0-9.727.029-19.454-.042-29.181-.407-1.394-2.107-1.577-3.338-1.591-.464-.02-.929-.001-1.393.004ZM141.861 141.031c-1.143.083-2.675.272-3.068 1.552-.274 1.054-.044 2.165-.12 3.244v9.755c-.908.925-1.897 2.226-3.356 2.068-1.225-.209-1.485-1.652-1.484-2.689-.09-4.052.049-8.109-.075-12.158-.299-1.306-1.795-1.751-2.983-1.747-1.495-.021-3.195-.224-4.479.698-1.046.96-.56 2.501-.654 3.745.022 3.96-.106 7.927.095 11.884.218 2.77 1.617 5.634 4.23 6.871 2.887 1.414 6.494 1.091 9.15-.696.503-.521.698.447 1.148.609 1.276.79 2.873.602 4.302.51 1.106-.096 2.322-.872 2.239-2.111.058-2.011-.01-4.026.021-6.039-.022-4.594.058-9.195-.06-13.783-.363-1.323-1.906-1.73-3.124-1.685a16.797 16.797 0 0 0-1.781-.028h-.001ZM158.687 140.852c-3.011.033-6.331 1.285-7.759 4.098-1.55 2.978-.729 7.144 2.225 8.948 1.779 1.245 3.897 1.664 5.785 2.7.511.333 1.322.971.763 1.617-1.098 1.207-2.924.945-4.343.593-1.308-.362-2.416-1.277-3.754-1.522-1.004.049-1.554 1.102-1.489 2.008-.156 1.46-.157 3.357 1.28 4.204 3.427 1.748 7.653 1.921 11.212.457 2.015-.846 3.634-2.599 4.139-4.742.735-2.605-.05-5.66-2.258-7.331-2.022-1.603-4.637-1.954-6.811-3.293-.824-.694-.061-2.08.94-1.976 1.95-.273 3.751.707 5.491 1.42 1.01.192 1.796-.814 1.706-1.757.095-1.218.264-2.859-.732-3.836-1.303-1.049-3.057-1.293-4.664-1.53a14.498 14.498 0 0 0-1.731-.058Z" fill="#000"/></svg>
